img/Smart_Contract_Development.svg

<?xml version="1.0" encoding="UTF-8"?>
<svg width="40px" height="40px" viewBox="0 0 40 40" version="1.1" xmlns="http://www.w3.org/2000/svg" xmlns:xlink="http://www.w3.org/1999/xlink">
    <!-- Generator: Sketch 61.2 (89653) - https://sketch.com -->
    <title>5.智能合约开发</title>
    <desc>Created with Sketch.</desc>
    <g id="5.智能合约开发" stroke="none" stroke-width="1" fill="none" fill-rule="evenodd">
        <g id="合约交易" fill-rule="nonzero">
            <path d="M5.33333332,39.8333333 L5,5 L35,5 L35,39.6666667 L20.5,35.3333333 C20.1666667,35.1666666 19.8333333,35.1666666 19.3333333,35.3333333 L5.33333332,39.8333333 Z M7.83333332,7.83333332 L8.16666668,36 L18.6666667,32.5 C19.6666667,32.1666667 20.6666667,32.1666667 21.5,32.5 L32.1666667,35.8333333 L32.1666667,7.83333332 L7.83333332,7.83333332 Z" id="形状" fill="#E40065"></path>
            <path d="M3.16666668,1.5 L37,1.5 C38,1.5 38.6666667,2.16666668 38.6666667,3.16666668 L38.6666667,5.33333332 C38.6666667,6.33333332 38,7 37,7 L3.16666668,7 C2.16666668,7 1.5,6.33333332 1.5,5.33333332 L1.5,3.16666668 C1.5,2.16666668 2.16666668,1.5 3.16666668,1.5 Z" id="路径" fill="#FFFFFF"></path>
            <path d="M37,8.33333332 L3.16666668,8.33333332 C1.33333332,8.33333332 0,7 0,5.16666668 L0,3.16666668 C0,1.33333332 1.33333332,0 3.16666668,0 L37,0 C38.6666667,0 40,1.33333332 40,3.16666668 L40,5.33333332 C40,7 38.6666667,8.33333332 37,8.33333332 Z M3.16666668,2.83333332 C3,2.83333332 3,3 3,3 L3,5.16666668 C3,5.33333332 3.16666668,5.33333332 3.16666668,5.33333332 L37,5.33333332 C37.1666667,5.33333332 37.3333333,5.16666664 37.3333333,5.16666668 L37.3333333,3.16666668 C37.3333333,3 37.1666666,3 37,3 L3.16666668,3 L3.16666668,2.83333332 Z" id="形状" fill="#E40065"></path>
            <polygon id="路径" fill="#C6C6C9" points="12.5 14.1666667 22.5 14.1666667 22.5 15.8333333 12.5 15.8333333"></polygon>
            <polygon id="路径" fill="#FFB7D7" points="11.6666667 13.3333333 23.3333333 13.3333333 23.3333333 16.6666667 11.6666667 16.6666667"></polygon>
            <polygon id="路径" fill="#C6C6C9" points="12.5 20.8333333 27.5 20.8333333 27.5 22.5 12.5 22.5"></polygon>
            <polygon id="路径" fill="#FFB7D7" points="11.6666667 20 28.3333333 20 28.3333333 23.3333333 11.6666667 23.3333333"></polygon>
        </g>
    </g>
</svg>

<svg width="40" height="40" viewBox="0 0 40 40" xmlns="http://www.w3.org/2000/svg"><g fill="none"><path d="M5.333 39.833L5 5h30v34.667l-14.5-4.334c-.333-.166-.667-.166-1.167 0l-14 4.5zm2.5-32L8.167 36l10.5-3.5c1-.333 2-.333 2.833 0l10.667 3.333v-28H7.833z" fill="#E40065"/><path d="M3.167 1.5H37c1 0 1.667.667 1.667 1.667v2.166C38.667 6.333 38 7 37 7H3.167c-1 0-1.667-.667-1.667-1.667V3.167c0-1 .667-1.667 1.667-1.667z" fill="#FFF"/><path d="M37 8.333H3.167C1.333 8.333 0 7 0 5.167v-2C0 1.333 1.333 0 3.167 0H37c1.667 0 3 1.333 3 3.167v2.166c0 1.667-1.333 3-3 3zm-33.833-5.5C3 2.833 3 3 3 3v2.167c0 .166.167.166.167.166H37c.167 0 .333-.166.333-.166v-2C37.333 3 37.167 3 37 3H3.167v-.167z" fill="#E40065"/><path fill="#C6C6C9" d="M12.5 14.167h10v1.666h-10z"/><path fill="#FFB7D7" d="M11.667 13.333h11.666v3.334H11.667z"/><path fill="#C6C6C9" d="M12.5 20.833h15V22.5h-15z"/><path fill="#FFB7D7" d="M11.667 20h16.666v3.333H11.667z"/></g></svg>
